X: 306
T: Over the bog road
L:1/8
M: C|
Z:Andrew Pickering (posted to woodenflute by Steven M. Palm)
K: G
|: GEDE G3A | B2gd BGG2 | AGEG A3B | d2gd B2AB
|  GEDE G3A | B2gd BGG2 | degd e2ge | dBAc BGG2 :|
|: gede g3a | bgaf ged2 | ageg a3b | c'abg agef
|  gede g3a | bgaf ged2 | efgd e2ge | dBAc BGG2 :|

